X: 93
T: Tenebre facte sunt
C: Gaspar van Weerbeke
%%abc-version 2.0
%%abcx-abcm2ps-target-version 5.9.1 (29 Sep 2008)
%%abc-creator hum2abc beta
%%abcx-conversion-date 2022/03/06 13:05:55
%%abc-copyright Copyright 2008, Pavanello, Agnese
%%abc-edited-by Mair-Gruber, Roland
%%humdrum-veritas 4246337168
%%humdrum-veritas-data 3189047402
%%linebreak <none>
%%barnumbers 0
L: 1/4
M: 2/2
N: Derived from Gas0417-Tenebre_facte_sunt.krn
%%staves [1 2 3 4]
V: 1 clef=treble
V: 2 clef=treble-8
V: 3 clef=treble-8
V: 4 clef=bass
K: C
[V:1] A4- | 
[V:2] e4- | 
[V:3] A4- | 
[V:4] A,,4- | 
[V:1] A2A2 | 
[V:2] e2e2 | 
[V:3] A2A2 | 
[V:4] A,,2A,,2 | 
[V:1] A3G/F/ | 
[V:2] e2c2 | 
[V:3] A4 | 
[V:4] A,,4 | 
[V:1] E4- | 
[V:2] c4 | 
[V:3] G4- | 
[V:4] C,4- | 
[V:1] E4 | 
[V:2] G4- | 
[V:3] G2c2 | 
[V:4] C,4 | 
[V:1] G4 | 
[V:2] G2G2 | 
[V:3] B2c2 | 
[V:4] E,2E,2 | 
[V:1] F4- | 
[V:2] A4- | 
[V:3] d4- | 
[V:4] D,4- | 
[V:1] F2A2 | 
[V:2] A2d2 | 
[V:3] d2A2 | 
[V:4] D,2F,2 | 
[V:1] G2F2 | 
[V:2] e2f2 | 
[V:3] c2d2 | 
[V:4] E,2D,2 | 
[V:1] G4 | 
[V:2] e4 | 
[V:3] B4 | 
[V:4] E,4 | 
[V:1] !fermata!A4 | 
[V:2] !fermata!e4 | 
[V:3] !fermata!A4 | 
[V:4] !fermata!A,,4 | 
[V:1] A4 | 
[V:2] f4 | 
[V:3] c4 | 
[V:4] F,4 | 
[V:1] G4 | 
[V:2] e4 | 
[V:3] c4 | 
[V:4] C,4 | 
[V:1] A2G2 | 
[V:2] c2G2 | 
[V:3] A2c2- | 
[V:4] F,2E,2 | 
[V:1] F2D2 | 
[V:2] A2B2 | 
[V:3] c2B2 | 
[V:4] F,2G,2 | 
[V:1] !fermata!E4 | 
[V:2] !fermata!G4 | 
[V:3] !fermata!c4 | 
[V:4] !fermata!C,4 | 
[V:1] z2E2 | 
[V:2] z2c2 | 
[V:3] z2G2 | 
[V:4] z2C,2 | 
[V:1] E4 | 
[V:2] c4 | 
[V:3] G4 | 
[V:4] C,4 | 
[V:1] E4 | 
[V:2] c4 | 
[V:3] G4 | 
[V:4] C,4 | 
[V:1] G2G2 | 
[V:2] c2c2 | 
[V:3] G2G2 | 
[V:4] E,2E,2 | 
[V:1] F4 | 
[V:2] d4 | 
[V:3] A4 | 
[V:4] D,4 | 
[V:1] E2D2 | 
[V:2] G2F2 | 
[V:3] c2B2 | 
[V:4] C,2D,2 | 
[V:1] E4 | 
[V:2] G4 | 
[V:3] c4 | 
[V:4] C,4- | 
[V:1] E2G2 | 
[V:2] g3e | 
[V:3] z2e2 | 
[V:4] C,4 | 
[V:1] A2c2 | 
[V:2] f2g2 | 
[V:3] d2c2 | 
[V:4] z2C,2 | 
[V:1] B3A/B/ | 
[V:2] g4 | 
[V:3] d4 | 
[V:4] G,4 | 
[V:1] !fermata!c4 | 
[V:2] !fermata!e4 | 
[V:3] !fermata!c4 | 
[V:4] !fermata!C,4 | 
[V:1] z2B2 | 
[V:2] z2g2 | 
[V:3] z2d2 | 
[V:4] z2G,2 | 
[V:1] B2B2 | 
[V:2] g2g2 | 
[V:3] d2d2 | 
[V:4] G,2G,2 | 
[V:1] c4 | 
[V:2] g4 | 
[V:3] e4 | 
[V:4] C,4 | 
[V:1] B4 | 
[V:2] g4 | 
[V:3] d4 | 
[V:4] G,4 | 
[V:1] A2A2- | 
[V:2] ecd2 | 
[V:3] c2A2 | 
[V:4] A,2F,2 | 
[V:1] A2^G2 | 
[V:2] e4 | 
[V:3] B4 | 
[V:4] E,4 | 
[V:1] A4 | 
[V:2] c4 | 
[V:3] A4 | 
[V:4] A,,4 | 
[V:1] z2F2 | 
[V:2] z2d2 | 
[V:3] z2A2 | 
[V:4] z2D,2 | 
[V:1] F4 | 
[V:2] d4 | 
[V:3] A4 | 
[V:4] D,4 | 
[V:1] F2E2 | 
[V:2] d2c2 | 
[V:3] A2G2 | 
[V:4] F,2C,2 | 
[V:1] !fermata!E4 | 
[V:2] !fermata!c4 | 
[V:3] !fermata!G4 | 
[V:4] !fermata!C,4 | 
[V:1] F4- | 
[V:2] A2d2- | 
[V:3] F4- | 
[V:4] D,4- | 
[V:1] F2F2 | 
[V:2] d2c2 | 
[V:3] F2A2 | 
[V:4] D,2F,2 | 
[V:1] E2D2 | 
[V:2] c2A2 | 
[V:3] G2F2 | 
[V:4] C,2D,2 | 
[V:1] E2G2- | 
[V:2] c4 | 
[V:3] G4 | 
[V:4] C,2E,2 | 
[V:1] G2^F2 | 
[V:2] d4 | 
[V:3] A4 | 
[V:4] D,4 | 
[V:1] !fermata!G4 | 
[V:2] !fermata!B4 | 
[V:3] !fermata!G4 | 
[V:4] !fermata!E,4 | 
[V:1] !fermata!c4 | 
[V:2] !fermata!e4 | 
[V:3] !fermata!G4 | 
[V:4] !fermata!C,4 | 
[V:1] !fermata!c4 | 
[V:2] !fermata!e4 | 
[V:3] !fermata!c4 | 
[V:4] !fermata!C,4 | 
[V:1] !fermata!B4 | 
[V:2] !fermata!g4 | 
[V:3] !fermata!d4 | 
[V:4] !fermata!G,4 | 
[V:1] !fermata!B4 | 
[V:2] !fermata!g4 | 
[V:3] !fermata!d4 | 
[V:4] !fermata!G,4 | 
[V:1] !fermata!c4 | 
[V:2] !fermata!e4 | 
[V:3] !fermata!c4 | 
[V:4] !fermata!C,4 | 
[V:1] !fermata!c4 | 
[V:2] !fermata!e4 | 
[V:3] !fermata!c4 | 
[V:4] !fermata!C,4 | 
[V:1] z2G2 | 
[V:2] z4 | 
[V:3] z2c2 | 
[V:4] z4 | 
[V:1] G2G2 | 
[V:2] z4 | 
[V:3] c2c2 | 
[V:4] z4 | 
[V:1] G4 | 
[V:2] z4 | 
[V:3] c4 | 
[V:4] z4 | 
[V:1] F2F2- | 
[V:2] z4 | 
[V:3] d2d2- | 
[V:4] z4 | 
[V:1] F2E2 | 
[V:2] z4 | 
[V:3] d2e2 | 
[V:4] z4 | 
[V:1] !fermata!E4 | 
[V:2] z4 | 
[V:3] !fermata!e4 | 
[V:4] z4 | 
[V:1] z2E2 | 
[V:2] z4 | 
[V:3] z2A2 | 
[V:4] z4 | 
[V:1] E2E2 | 
[V:2] z4 | 
[V:3] A2A2 | 
[V:4] z4 | 
[V:1] E4 | 
[V:2] z4 | 
[V:3] A4 | 
[V:4] z4 | 
[V:1] D2D2- | 
[V:2] z4 | 
[V:3] B2B2- | 
[V:4] z4 | 
[V:1] D2E2 | 
[V:2] z4 | 
[V:3] B2c2 | 
[V:4] z4 | 
[V:1] D2C2 | 
[V:2] z4 | 
[V:3] B2c2 | 
[V:4] z4 | 
[V:1] C4 | 
[V:2] z4 | 
[V:3] c4 | 
[V:4] z4 | 
[V:1] z2G2 | 
[V:2] z4 | 
[V:3] z2c2 | 
[V:4] z4 | 
[V:1] G2G2 | 
[V:2] z4 | 
[V:3] c2e2 | 
[V:4] z4 | 
[V:1] A3G | 
[V:2] z4 | 
[V:3] d3e | 
[V:4] z4 | 
[V:1] F2E2 | 
[V:2] z4 | 
[V:3] d2e2 | 
[V:4] z4 | 
[V:1] F3E | 
[V:2] z4 | 
[V:3] d3e | 
[V:4] z4 | 
[V:1] !fermata!E4 | 
[V:2] z4 | 
[V:3] !fermata!e4 | 
[V:4] z4 | 
[V:1] B4 | 
[V:2] g4 | 
[V:3] d4 | 
[V:4] G,4 | 
[V:1] B4 | 
[V:2] g4 | 
[V:3] d4 | 
[V:4] G,4 | 
[V:1] c4 | 
[V:2] e4- | 
[V:3] c4 | 
[V:4] C,4 | 
[V:1] c2c2 | 
[V:2] e2c2 | 
[V:3] c2c2 | 
[V:4] C,2C,2 | 
[V:1] B4 | 
[V:2] z2G2 | 
[V:3] d4 | 
[V:4] G,4 | 
[V:1] A2A2 | 
[V:2] A3A | 
[V:3] d2d2 | 
[V:4] F,2F,2 | 
[V:1] G4 | 
[V:2] B2e2- | 
[V:3] e4 | 
[V:4] E,4 | 
[V:1] A2c2 | 
[V:2] e2f2 | 
[V:3] c2c2 | 
[V:4] A,4 | 
[V:1] B2d2- | 
[V:2] g2g2 | 
[V:3] d4- | 
[V:4] G,4 | 
[V:1] dcBA | 
[V:2] d4 | 
[V:3] d4 | 
[V:4] G,3F, | 
[V:1] !fermata!G4 | 
[V:2] !fermata!e4 | 
[V:3] !fermata!B4 | 
[V:4] !fermata!E,4 | 
[V:1] z2G2- | 
[V:2] z2e2- | 
[V:3] z2B2- | 
[V:4] z2E,2- | 
[V:1] G2G2 | 
[V:2] e2e2 | 
[V:3] B2B2 | 
[V:4] E,2E,2 | 
[V:1] G4- | 
[V:2] e4- | 
[V:3] B4- | 
[V:4] E,4- | 
[V:1] G2A2 | 
[V:2] e2c2 | 
[V:3] B2A2 | 
[V:4] E,2A,,2 | 
[V:1] !fermata!A4 |]  
[V:2] !fermata!c4 |]  
[V:3] !fermata!A4 |]  
[V:4] !fermata!A,,4 |]  


